X:89
T:Lord Plymouth's Frolick
M:2/4
L:1/8
B:Thompson's Compleat Collection of 200 Favourite Country Dances, vol. 2 (London, 1765)
Z:Transcribed and edited by Flynn Titford-Mock, 2007
Z:abc's:AK/Fiddler's Companion
K:G
GBdB | G2g2 | BcdB | A2D2 | GBdB | G2g2 | fae^c | d2D2 :|
|: BcdB | b2d2 | ABcA | a2A2 | Bdgd | e2c2 | BdDF | G2 [G,2G2] :|

